public/svg/groups/lifestyle.svg

<svg xmlns="http://www.w3.org/2000/svg" viewBox="0 0 50 50">
  <path d="M 37.96875 2.28125 C 37.438818 2.3759277 37.08125 2.7875 36.90625 3.125 L 29.90625 17 C 29.008599 15.795077 27.615969 15 26 15 C 23.97278 15 22.280157 16.255357 21.5 18 C 20.891617 18 20.336589 18.155584 19.78125 18.3125 C 19.054502 17.560448 18.124168 17 17 17 C 16.494388 17 16.056297 17.176384 15.625 17.34375 C 15.111822 17.162274 14.581565 17 14 17 C 11.539961 17 9.5941138 18.838847 9.1875 21.1875 C 6.8388467 21.594114 5 23.539961 5 26 L 3 26 C 2.448 26 2 26.447 2 27 L 2 30.625 C 2 40.533 12.64125 48 19.53125 48 L 30.46875 48 C 37.35875 48 48 40.533 48 30.625 L 48 27 C 48 26.447 47.553 26 47 26 L 45.84375 26 C 45.544299 25.012687 44.827342 24.213844 43.9375 23.6875 C 43.784546 21.823161 42.366266 20.349026 40.53125 20.09375 C 40.246079 19.422948 39.833326 18.835167 39.3125 18.34375 L 46.1875 8.65625 C 46.5355 8.15625 46.745 7.26075 45.625 6.46875 C 44.506 5.67575 43.73525 6.33175 43.40625 6.84375 L 36.9375 17.09375 C 36.633186 17.032395 36.323874 17 36 17 C 34.676285 17 33.544763 17.598925 32.65625 18.4375 C 32.45265 18.360566 32.23723 18.291191 32.03125 18.21875 L 39.84375 4.65625 C 40.14375 4.12625 40.28175 3.21625 39.09375 2.53125 C 38.647875 2.274375 38.286709 2.2244434 37.96875 2.28125 z M 26 17 C 27.453106 17 28.650576 18.01904 28.9375 19.375 L 29.15625 20.4375 L 30.1875 20.125 C 30.479761 20.041857 30.742807 20 31 20 C 31.507029 20 31.995111 20.13469 32.4375 20.375 L 33.15625 20.78125 L 33.6875 20.125 C 34.244498 19.435782 35.056255 19 36 19 C 37.40851 19 38.574982 19.950466 38.90625 21.25 L 39.09375 22.0625 L 39.90625 22 C 40.098024 21.9917 40.123213 22 40 22 C 41.116666 22 42 22.883334 42 24 C 42 23.90799 41.98025 23.95242 41.96875 24.125 L 41.9375 24.875 L 42.65625 25.125 C 43.107937 25.282242 43.480171 25.600856 43.71875 26 L 27 26 C 27 25.447715 26.552285 25 26 25 C 25.447715 25 25 25.447715 25 26 L 7 26 C 7 24.331516 8.3315161 23 10 23 L 11 23 L 11 22 C 11 20.331516 12.331516 19 14 19 C 14.430468 19 14.840269 19.08136 15.21875 19.25 L 15.65625 19.46875 L 16.09375 19.25 C 16.388798 19.096433 16.678667 19 17 19 C 17.710737 19 18.329671 19.352753 18.6875 19.90625 L 19.125 20.59375 L 19.875 20.3125 C 20.383321 20.115278 20.928339 20 21.5 20 C 21.666052 20 21.824021 20.01075 22 20.03125 L 22.875 20.125 L 23.09375 19.28125 C 23.419047 17.971798 24.584554 17 26 17 z M 15 21 C 14.447715 21 14 21.447715 14 22 C 14 22.552285 14.447715 23 15 23 C 15.552285 23 16 22.552285 16 22 C 16 21.447715 15.552285 21 15 21 z M 18 23 C 17.447715 23 17 23.447715 17 24 C 17 24.552285 17.447715 25 18 25 C 18.552285 25 19 24.552285 19 24 C 19 23.447715 18.552285 23 18 23 z M 33 23 C 32.447715 23 32 23.447715 32 24 C 32 24.552285 32.447715 25 33 25 C 33.552285 25 34 24.552285 34 24 C 34 23.447715 33.552285 23 33 23 z"></path>
</svg>

<svg xmlns="http://www.w3.org/2000/svg" viewBox="0 0 50 50"><path d="M37.97 2.28c-.53.096-.89.508-1.064.845l-7 13.875c-.897-1.205-2.29-2-3.906-2-2.027 0-3.72 1.255-4.5 3-.608 0-1.163.156-1.72.313C19.056 17.56 18.125 17 17 17c-.506 0-.944.176-1.375.344C15.112 17.162 14.582 17 14 17c-2.46 0-4.406 1.84-4.813 4.188C6.84 21.593 5 23.54 5 26H3c-.552 0-1 .447-1 1v3.625C2 40.533 12.64 48 19.53 48h10.94C37.36 48 48 40.533 48 30.625V27c0-.553-.447-1-1-1h-1.156c-.3-.987-1.017-1.786-1.907-2.313-.152-1.864-1.57-3.338-3.406-3.593-.284-.67-.697-1.26-1.218-1.75l6.876-9.688c.347-.5.557-1.395-.563-2.187-1.12-.794-1.89-.138-2.22.374l-6.468 10.25C36.633 17.032 36.325 17 36 17c-1.324 0-2.455.6-3.344 1.438-.203-.077-.42-.147-.625-.22l7.814-13.562c.3-.53.438-1.44-.75-2.125-.446-.256-.807-.306-1.125-.25zM26 17c1.453 0 2.65 1.02 2.938 2.375l.218 1.063 1.032-.313c.292-.083.555-.125.812-.125.507 0 .995.135 1.438.375l.718.406.532-.655C34.243 19.435 35.056 19 36 19c1.41 0 2.575.95 2.906 2.25l.188.813.812-.063c.192-.008.217 0 .094 0 1.117 0 2 .883 2 2 0-.092-.02-.048-.03.125l-.032.75.718.25c.452.157.824.476 1.063.875H27c0-.552-.448-1-1-1s-1 .448-1 1H7c0-1.668 1.332-3 3-3h1v-1c0-1.668 1.332-3 3-3 .43 0 .84.08 1.22.25l.436.22.438-.22c.295-.154.585-.25.906-.25.71 0 1.33.353 1.688.906l.437.688.75-.282c.508-.197 1.053-.312 1.625-.312.166 0 .324.01.5.03l.875.095.22-.844C23.418 17.973 24.584 17 26 17zm-11 4c-.552 0-1 .448-1 1s.448 1 1 1 1-.448 1-1-.448-1-1-1zm3 2c-.552 0-1 .448-1 1s.448 1 1 1 1-.448 1-1-.448-1-1-1zm15 0c-.552 0-1 .448-1 1s.448 1 1 1 1-.448 1-1-.448-1-1-1z"/></svg>
